X:73
T:Reel 73
M:4/4
K:Dmaj
L:1/8
 (3A,B,C |D2FD A,DFD|EFGE FGEF|D2FD ADFD|ECA,B, CA,B,C|D2FD ADFD|EA,EF GEFG|FDDC DFAd| (3Bcd ce dBAF|D2FD ADFA|CDEF GFED|FDAD BDAD|GFEF GABc|dAFD ADAD|GEFD EFGE|FABc deBd|cABc dBAG|
